icon_installer/data/icons/scalable/actions/show-anniversary-symbolic.svg

<?xml version="1.0" encoding="UTF-8"?>
<svg height="16px" viewBox="0 0 16 16" width="16px" xmlns="http://www.w3.org/2000/svg">
    <g fill="#222222">
        <path d="m 9.445312 0.046875 c -0.417968 -0.0117188 -0.824218 0.140625 -1.128906 0.421875 l -0.324218 0.289062 l -0.320313 -0.289062 c -1.597656 -1.46875 -3.773437 0.976562 -2.128906 2.390625 l 2.449219 2.183594 l 2.453124 -2.183594 c 1.109376 -0.953125 0.460938 -2.7734375 -1 -2.8125 z m 0 0"/>
        <path d="m 10.5 5 c -0.449219 0 -0.886719 0.054688 -1.304688 0.15625 c 0.40625 0.285156 0.789063 0.613281 1.128907 0.988281 c 0.253906 0.28125 0.476562 0.578125 0.671875 0.890625 c 1.707031 0.238282 3.003906 1.6875 3.003906 3.464844 c 0 1.945312 -1.554688 3.5 -3.5 3.5 s -3.5 -1.554688 -3.5 -3.5 c 0 -0.589844 0.144531 -1.140625 0.398438 -1.625 c -0.015626 -0.019531 -0.027344 -0.035156 -0.042969 -0.050781 c -0.457031 -0.503907 -1.085938 -0.796875 -1.75 -0.824219 c -0.386719 0.75 -0.605469 1.601562 -0.605469 2.5 c 0 3.027344 2.472656 5.5 5.5 5.5 s 5.5 -2.472656 5.5 -5.5 s -2.472656 -5.5 -5.5 -5.5 z m 0 0"/>
        <path d="m 5.5 16 c 0.449219 0 0.886719 -0.054688 1.304688 -0.15625 c -0.40625 -0.285156 -0.789063 -0.613281 -1.128907 -0.988281 c -0.253906 -0.277344 -0.476562 -0.578125 -0.671875 -0.890625 c -1.707031 -0.238282 -3.003906 -1.6875 -3.003906 -3.464844 c 0 -1.945312 1.554688 -3.5 3.5 -3.5 s 3.5 1.554688 3.5 3.5 c 0 0.589844 -0.144531 1.140625 -0.398438 1.628906 c 0.015626 0.015625 0.027344 0.03125 0.042969 0.046875 c 0.457031 0.503907 1.085938 0.796875 1.75 0.824219 c 0.386719 -0.75 0.605469 -1.601562 0.605469 -2.5 c 0 -3.027344 -2.472656 -5.5 -5.5 -5.5 s -5.5 2.472656 -5.5 5.5 s 2.472656 5.5 5.5 5.5 z m 0 0"/>
    </g>
</svg>

<svg xmlns="http://www.w3.org/2000/svg" width="16" height="16"><g fill="#222"><path d="M9.445.047a1.6 1.6 0 0 0-1.129.422l-.324.289-.32-.29C6.074-1 3.898 1.446 5.543 2.86l2.45 2.184 2.452-2.184c1.11-.953.461-2.773-1-2.812zM10.5 5c-.45 0-.887.055-1.305.156a6.337 6.337 0 0 1 1.8 1.879A3.481 3.481 0 0 1 14 10.5c0 1.945-1.555 3.5-3.5 3.5S7 12.445 7 10.5c0-.59.145-1.14.398-1.625A2.499 2.499 0 0 0 5.605 8 5.445 5.445 0 0 0 5 10.5c0 3.027 2.473 5.5 5.5 5.5s5.5-2.473 5.5-5.5S13.527 5 10.5 5zm0 0"/><path d="M5.5 16c.45 0 .887-.055 1.305-.156a6.76 6.76 0 0 1-1.13-.989 6.118 6.118 0 0 1-.671-.89A3.481 3.481 0 0 1 2 10.5C2 8.555 3.555 7 5.5 7S9 8.555 9 10.5c0 .59-.145 1.14-.398 1.629.015.016.027.031.043.047a2.499 2.499 0 0 0 1.75.824c.386-.75.605-1.602.605-2.5C11 7.473 8.527 5 5.5 5S0 7.473 0 10.5 2.473 16 5.5 16zm0 0"/></g></svg>
